public/images/case-studies/maikeinc/feature2.svg

<svg width="64" height="64" viewBox="0 0 64 64" fill="none" xmlns="http://www.w3.org/2000/svg">
<path d="M63.0548 1.545e-07H0.945148C0.821009 -7.08427e-05 0.698074 0.0243277 0.583372 0.0718007C0.468669 0.119274 0.364448 0.18889 0.276669 0.276669C0.18889 0.364448 0.119274 0.468669 0.0718007 0.583372C0.0243277 0.698074 -7.08427e-05 0.821009 1.545e-07 0.945148V53.5008C1.545e-07 53.7514 0.099578 53.9918 0.276828 54.1691C0.454077 54.3463 0.694479 54.4459 0.945148 54.4459H17.7348V59.0366C17.7369 60.3515 18.2601 61.612 19.1899 62.5418C20.1196 63.4716 21.38 63.995 22.6949 63.9973H41.3051C42.62 63.995 43.8804 63.4716 44.8101 62.5418C45.7398 61.612 46.2631 60.3515 46.2652 59.0366V54.4459H63.0548C63.3055 54.4459 63.5459 54.3463 63.7232 54.1691C63.9004 53.9918 64 53.7514 64 53.5008V0.945148C64.0001 0.821009 63.9757 0.698074 63.9282 0.583372C63.8807 0.468669 63.8111 0.364448 63.7233 0.276669C63.6356 0.18889 63.5313 0.119274 63.4166 0.0718007C63.3019 0.0243277 63.179 -7.08427e-05 63.0548 1.545e-07ZM1.8903 1.8903H62.1097V7.63733H1.8903V1.8903ZM19.625 53.5164C19.625 53.511 19.625 53.5062 19.625 53.5008C19.625 53.4954 19.625 53.49 19.625 53.4851V29.7651H44.375V53.4851V53.5008C44.375 53.5008 44.375 53.511 44.375 53.5164V55.1939H19.625V53.5164ZM19.712 27.8748C19.873 27.2045 20.2546 26.6078 20.7956 26.1805C21.3366 25.7533 22.0055 25.5203 22.6949 25.519H41.3051C41.9945 25.5203 42.6634 25.7533 43.2044 26.1805C43.7454 26.6078 44.127 27.2045 44.288 27.8748H19.712ZM41.3051 62.1097H22.6949C21.8809 62.1087 21.1006 61.7849 20.5251 61.2093C19.9496 60.6337 19.6259 59.8533 19.625 59.0393V57.0842H44.375V59.0393C44.3741 59.8533 44.0504 60.6337 43.4749 61.2093C42.8994 61.7849 42.1191 62.1087 41.3051 62.1097ZM46.2652 52.5556V28.5894C46.2631 27.2745 45.7398 26.014 44.8101 25.0842C43.8804 24.1544 42.62 23.631 41.3051 23.6287H22.6949C21.38 23.631 20.1196 24.1544 19.1899 25.0842C18.2601 26.014 17.7369 27.2745 17.7348 28.5894V52.5556H1.8903V9.52763H62.1097V52.5556H46.2652Z" fill="#7F8284"/>
<path d="M42.2387 3.13086C41.9157 3.13086 41.5999 3.22665 41.3313 3.40611C41.0627 3.58557 40.8534 3.84064 40.7298 4.13907C40.6062 4.4375 40.5738 4.76589 40.6369 5.0827C40.6999 5.39951 40.8554 5.69052 41.0838 5.91893C41.3122 6.14734 41.6033 6.30289 41.9201 6.36591C42.2369 6.42893 42.5653 6.39658 42.8637 6.27297C43.1621 6.14935 43.4172 5.94002 43.5967 5.67144C43.7761 5.40286 43.8719 5.08709 43.8719 4.76407C43.8719 4.33092 43.6998 3.9155 43.3935 3.60922C43.0873 3.30293 42.6718 3.13086 42.2387 3.13086Z" fill="#FF6B00"/>
<path d="M48.6303 3.13086C48.3073 3.13075 47.9915 3.22645 47.7228 3.40584C47.4542 3.58524 47.2448 3.84027 47.1211 4.1387C46.9974 4.43712 46.9649 4.76552 47.0279 5.08237C47.0909 5.39922 47.2464 5.69028 47.4748 5.91874C47.7031 6.1472 47.9941 6.30281 48.311 6.36587C48.6278 6.42893 48.9562 6.39662 49.2547 6.27302C49.5531 6.14942 49.8082 5.94009 49.9877 5.6715C50.1672 5.4029 50.263 5.08712 50.263 4.76407C50.263 4.33101 50.091 3.91568 49.7848 3.60941C49.4787 3.30314 49.0634 3.131 48.6303 3.13086Z" fill="#FF6B00"/>
<path d="M55.021 3.13086C54.6979 3.13075 54.3821 3.22645 54.1135 3.40584C53.8448 3.58524 53.6354 3.84027 53.5117 4.1387C53.388 4.43712 53.3556 4.76552 53.4185 5.08237C53.4815 5.39922 53.637 5.69028 53.8654 5.91874C54.0938 6.1472 54.3848 6.30281 54.7016 6.36587C55.0184 6.42893 55.3468 6.39662 55.6453 6.27302C55.9438 6.14942 56.1989 5.94009 56.3784 5.6715C56.5578 5.4029 56.6536 5.08712 56.6536 4.76407C56.6537 4.54962 56.6115 4.33726 56.5295 4.13911C56.4475 3.94096 56.3272 3.76092 56.1756 3.60925C56.024 3.45758 55.844 3.33727 55.6459 3.25519C55.4478 3.17311 55.2354 3.13086 55.021 3.13086Z" fill="#FF6B00"/>
<path d="M31.9999 57.9238C31.6688 57.9238 31.3451 58.022 31.0698 58.206C30.7944 58.39 30.5799 58.6514 30.4531 58.9574C30.3264 59.2633 30.2933 59.5999 30.3579 59.9247C30.4225 60.2495 30.5819 60.5478 30.8161 60.782C31.0502 61.0161 31.3485 61.1756 31.6733 61.2402C31.9981 61.3048 32.3347 61.2716 32.6407 61.1449C32.9466 61.0182 33.2081 60.8036 33.392 60.5283C33.576 60.2529 33.6742 59.9292 33.6742 59.5981C33.6742 59.154 33.4978 58.7282 33.1838 58.4142C32.8698 58.1002 32.444 57.9238 31.9999 57.9238Z" fill="#FF6B00"/>
<path d="M40.2354 34.8743C40.2279 34.8437 40.2187 34.8136 40.2079 34.7841C40.1918 34.7498 40.1738 34.7164 40.1539 34.6842C40.142 34.6636 40.1328 34.6415 40.1193 34.6215C40.0499 34.5173 39.9605 34.4279 39.8563 34.3585C39.836 34.3461 39.8151 34.3347 39.7936 34.3245C39.7356 34.2864 39.6712 34.2591 39.6035 34.244C39.5749 34.2354 39.5495 34.2246 39.5176 34.2186C39.4569 34.2061 39.395 34.1998 39.3329 34.1997H34.8572C34.6066 34.1997 34.3662 34.2993 34.1889 34.4765C34.0117 34.6538 33.9121 34.8942 33.9121 35.1449C33.9121 35.3955 34.0117 35.6359 34.1889 35.8132C34.3662 35.9904 34.6066 36.09 34.8572 36.09H37.0532L25.611 47.5328V45.3362C25.611 45.0856 25.5114 44.8452 25.3342 44.6679C25.1569 44.4907 24.9165 44.3911 24.6659 44.3911C24.4152 44.3911 24.1748 44.4907 23.9975 44.6679C23.8203 44.8452 23.7207 45.0856 23.7207 45.3362V49.8141C23.7209 49.8763 23.727 49.9383 23.7391 49.9993C23.745 50.0285 23.7558 50.0533 23.7645 50.0836C23.7724 50.1147 23.7819 50.1453 23.7931 50.1754C23.8082 50.2091 23.8254 50.242 23.8444 50.2737C23.8563 50.2948 23.8654 50.3174 23.8795 50.338C23.949 50.4419 24.0382 50.5313 24.142 50.601C24.1636 50.615 24.1863 50.6242 24.2084 50.6366C24.2394 50.6555 24.2715 50.6724 24.3045 50.6874C24.3348 50.6998 24.3672 50.7068 24.3985 50.7166C24.4298 50.7263 24.4525 50.7349 24.4806 50.7409C24.5416 50.7529 24.6037 50.7591 24.6659 50.7592H29.1432C29.3938 50.7592 29.6342 50.6597 29.8115 50.4824C29.9887 50.3052 30.0883 50.0648 30.0883 49.8141C30.0883 49.5634 29.9887 49.323 29.8115 49.1458C29.6342 48.9685 29.3938 48.8689 29.1432 48.8689H26.9472L38.3894 37.4267V39.6227C38.3894 39.8734 38.489 40.1138 38.6662 40.291C38.8435 40.4683 39.0839 40.5678 39.3345 40.5678C39.5852 40.5678 39.8256 40.4683 40.0029 40.291C40.1801 40.1138 40.2797 39.8734 40.2797 39.6227V35.1449C40.2795 35.0828 40.2734 35.021 40.2613 34.9601C40.2554 34.9304 40.244 34.9029 40.2354 34.8743Z" fill="#FF6B00"/>
</svg>

<svg xmlns="http://www.w3.org/2000/svg" width="64" height="64" fill="none" xmlns:v="https://vecta.io/nano"><path d="M63.055 0H.945C.821 0 .698.024.583.072S.364.189.277.277.119.469.072.583 0 .821 0 .945v52.556c0 .251.1.491.277.668s.418.277.668.277h16.79v4.591a4.97 4.97 0 0 0 4.96 4.961h18.61a4.97 4.97 0 0 0 4.96-4.961v-4.591h16.79c.251 0 .491-.1.668-.277s.277-.418.277-.668V.945c0-.124-.024-.247-.072-.362s-.117-.219-.205-.307-.192-.157-.307-.205S63.179 0 63.055 0zM1.89 1.89H62.11v5.747H1.89V1.89zm17.735 51.626v-.031-23.72h24.75v23.72.016 1.693h-24.75v-1.678zm.087-25.642c.161-.67.543-1.267 1.084-1.694s1.21-.66 1.899-.662h18.61c.689.001 1.358.234 1.899.662s.923 1.024 1.084 1.694H19.712zM41.305 62.11h-18.61c-.814-.001-1.594-.325-2.17-.9s-.899-1.356-.9-2.17v-1.955h24.75v1.955c-.001.814-.325 1.594-.9 2.17s-1.356.899-2.17.9zm4.96-9.554V28.589a4.97 4.97 0 0 0-4.96-4.961h-18.61a4.97 4.97 0 0 0-4.96 4.961v23.966H1.89V9.528H62.11v43.028H46.265z" fill="#7f8284"/><path d="M42.239 3.131c-.323 0-.639.096-.907.275a1.64 1.64 0 0 0-.602.733 1.63 1.63 0 0 0-.093.944c.063.317.219.608.447.836s.52.384.836.447.645.031.944-.093.553-.333.733-.602a1.63 1.63 0 0 0 .275-.907c0-.433-.172-.849-.478-1.155s-.722-.478-1.155-.478zm6.391 0c-.323 0-.639.096-.907.275s-.478.434-.602.733a1.63 1.63 0 0 0-.093.944c.063.317.218.608.447.836s.519.384.836.447a1.63 1.63 0 0 0 .944-.093c.299-.124.553-.333.733-.602a1.63 1.63 0 0 0 .275-.907c0-.433-.172-.848-.478-1.155s-.721-.478-1.154-.479zm6.391 0c-.323 0-.639.096-.907.275s-.478.434-.602.733a1.63 1.63 0 0 0-.093.944c.063.317.218.608.447.836s.519.384.836.447a1.63 1.63 0 0 0 1.677-.695c.179-.269.275-.584.275-.907a1.63 1.63 0 0 0-.478-1.155 1.63 1.63 0 0 0-1.155-.478zM32 57.924c-.331 0-.655.098-.93.282a1.68 1.68 0 0 0-.617.751c-.127.306-.16.642-.095.967s.224.623.458.857a1.67 1.67 0 0 0 .857.458c.325.064.661.031.967-.095s.567-.341.751-.617.282-.599.282-.93c0-.444-.176-.87-.49-1.184s-.74-.49-1.184-.49zm8.235-23.05l-.027-.09a.99.99 0 0 0-.054-.1l-.035-.063a.94.94 0 0 0-.263-.263l-.063-.034c-.058-.038-.122-.065-.19-.081-.029-.009-.054-.019-.086-.025-.061-.013-.123-.019-.185-.019h-4.476c-.251 0-.491.1-.668.277s-.277.418-.277.668.1.491.277.668.418.277.668.277h2.196L25.611 47.533v-2.197c0-.251-.1-.491-.277-.668s-.418-.277-.668-.277-.491.1-.668.277-.277.418-.277.668v4.478a.97.97 0 0 0 .018.185c.006.029.017.054.025.084l.029.092a.71.71 0 0 0 .051.098c.012.021.021.044.035.064a.96.96 0 0 0 .262.263c.022.014.044.023.066.036a.9.9 0 0 0 .096.051c.03.012.063.019.094.029l.082.024a.97.97 0 0 0 .185.018h4.477a.94.94 0 0 0 .668-.277.95.95 0 0 0 .277-.668c0-.25-.1-.491-.277-.668s-.418-.277-.668-.277h-2.196l11.442-11.442v2.196c0 .251.1.491.277.668s.418.277.668.277A.94.94 0 0 0 40 40.29a.95.95 0 0 0 .277-.668v-4.478a.96.96 0 0 0-.018-.185c-.006-.03-.017-.057-.026-.086z" fill="#ff6b00"/></svg>
